X:1
T:Title
%%score { ( 1 4 ) | ( 2 3 ) }
L:1/8
M:4/4
K:C
V:1 treble nm="Grand Piano"
V:4 treble 
V:2 bass 
V:3 bass 
V:1
 z4 z2[Q:1/4=100] G2 | [Ec]3 [Ec] [DB]2 .[A,FA]2 | [CEG]4 [G,CE]2 .[A,EA]2 | z4 z2 [Ec]2 | %4
[M:3/4] B6 |[M:1/4] G2 |[M:4/4] [Ec]3 [Ec] [DB]2 .[A,FA]2 | z4 z2 [Ge]2 | [Gd]2 z A [GB]2 [^FA]2 | %9
[M:3/4] G6 |[M:1/4] G2 |[M:4/4] G3 G ABcd | [Ee]4 [Ec]2 [EG]2 | z4 B2 A2 |[M:3/4] [EG]6 | %15
[M:1/4] [EG]2 |[M:4/4] G3 G ABA-[Ad] | [^Ge]4 c2 d2 | G2 c2 [CE]2 [B,D]2 |[M:3/4] C6 |] %20
V:2
 z4 z2 G,2 | [C,G,]3 [C,G,] F,G, z B, | C,4 C,2 z G | D,2 C,2 [B,,G,]2 .[C,G,]2 |[M:3/4] [G,D]6 | %5
[M:1/4] G,2 |[M:4/4] [C,G,]3 [C,G,] F,G, z B, | C,4 C,2 .[C,G,]2 | %8
 [D,B,]2 [E,C][_E,^C] [D,D]2 [D,=C]2 |[M:3/4][K:treble] [G,B,D]6 |[M:1/4] [G,B,D]2 | %11
[M:4/4] [G,B,F]3 [G,B,F] [G,F]-[G,DF][G,F]-[G,B,F] | [C,C]4 [C,G,]2 [C,C]2 | %13
 [F,CF]2 [F,A,F]2 [F,G]2 .[F,A,F]2 |[M:3/4] [C,C]6 |[M:1/4] [C,C]2 | %16
[M:4/4][K:treble] [G,B,F]3 [G,B,F][K:bass] [F,F]-[F,DF] z A, | [E,B,]4[K:treble] [A,A]2 [F,A,F]2 | %18
 [G,E]2 [G,E]2 [G,,G,]2 [G,,F,]2 |[M:3/4] [C,E,]6 |] %20
V:3
 x8 | z4 C,2 C,2 | z4 z2 ^C,2 | x8 |[M:3/4] x6 |[M:1/4] x2 |[M:4/4] z4 C,2 C,2 | x8 | x8 | %9
[M:3/4][K:treble] x6 |[M:1/4] x2 |[M:4/4] z4 .C2 .C2 | x8 | x8 |[M:3/4] x6 |[M:1/4] x2 | %16
[M:4/4][K:treble] z4[K:bass] .C2 F,2 | x4[K:treble] x4 | x8 |[M:3/4] x6 |] %20
V:4
 x8 | x8 | x8 | [A,DF]2 [A,FA]2 [Fd]2 z E, |[M:3/4] x6 |[M:1/4] x2 |[M:4/4] x8 | %7
 [CEG]4 [G,CE]2 z A, | z2 G2 z4 |[M:3/4] x6 |[M:1/4] x2 |[M:4/4] x8 | x8 | A2 c2 z G, z B, | %14
[M:3/4] x6 |[M:1/4] x2 |[M:4/4] z4 z2 .[Cc]2 | x8 | x8 |[M:3/4] x6 |] %20

